!!!COM: Corelli, Arcangelo
!!!OTL: 
!!!ONM: Opus 6, No. 10
!!!OMV: 5
!!!CDT: 1653/2/17/-1713/1/8/
!!!OCY: Italia
**kern	**kern	**kern	**kern	**kern	**kern	**kern
*clefC	*clefG	*clefG	*clefG	*clefC	*clefG	*clefG
*k[]	*k[]	*k[]	*k[]	*k[]	*k[]	*k[]
*C:	*C:	*C:	*C:	*C:	*C:	*C:
*M4/4	*M4/4	*M4/4	*M4/4	*M4/4	*M4/4	*M4/4
=1	=1	=1	=1	=1	=1	=1
1r	1r	1r	1r	8r	4gg	16ee
.	.	.	.	.	.	16gg
.	.	.	.	8c	.	16ee
.	.	.	.	.	.	16gg
.	.	.	.	8B	8r	16dd
.	.	.	.	.	.	16gg
.	.	.	.	8G	8gg	16dd
.	.	.	.	.	.	16gg
.	.	.	.	8r	8gg	16ee
.	.	.	.	.	.	16gg
.	.	.	.	8c	8cc	16ee
.	.	.	.	.	.	16gg
.	.	.	.	8B	4r	16dd
.	.	.	.	.	.	16gg
.	.	.	.	8G	.	16dd
.	.	.	.	.	.	16gg
=2	=2	=2	=2	=2	=2	=2
8r	8r	4ee	16cc	8r	4ee	16cc
.	.	.	16ee	.	.	16ee
8A	8A	.	16cc	8A	.	16cc
.	.	.	16ee	.	.	16ee
8G#	4e	8r	16b	8G#	8r	16b
.	.	.	16ee	.	.	16ee
8E	.	8ee	16b	8E	8ee	16b
.	.	.	16ee	.	.	16ee
8r	8r	8ee	16cc	8r	8ee	16cc
.	.	.	16ee	.	.	16ee
8A	8A	8a	16cc	8A	8a	16cc
.	.	.	16ee	.	.	16ee
8G#	4e	4r	4b	8G#	4r	16b
.	.	.	.	.	.	16ee
8E	.	.	.	8E	.	16b
.	.	.	.	.	.	16ee
=3	=3	=3	=3	=3	=3	=3
1r	1r	1r	1r	8r	4cc	16a
.	.	.	.	.	.	16cc
.	.	.	.	8F	.	16a
.	.	.	.	.	.	16cc
.	.	.	.	8E	8r	16g
.	.	.	.	.	.	16cc
.	.	.	.	8C	8cc	16g
.	.	.	.	.	.	16cc
.	.	.	.	8r	8cc	16a
.	.	.	.	.	.	16cc
.	.	.	.	8F	8f	16a
.	.	.	.	.	.	16cc
.	.	.	.	8E	4r	16g
.	.	.	.	.	.	16cc
.	.	.	.	8C	.	16g
.	.	.	.	.	.	16cc
=4	=4	=4	=4	=4	=4	=4
4F	4f	4cc	16aa	4F	4cc	16aa
.	.	.	16bb	.	.	16bb
.	.	.	16aa	.	.	16aa
.	.	.	16bb	.	.	16bb
4E	4c	8r	16gg	4E	8r	16gg
.	.	.	16aa	.	.	16aa
.	.	8ee	16gg	.	8ee	16gg
.	.	.	16aa	.	.	16aa
4D	4d	8a	16ff	4D	8a	16ff
.	.	.	16gg	.	.	16gg
.	.	8b	16ff	.	8b	16ff
.	.	.	16gg	.	.	16gg
4C	4g	16cc	16ee	4C	16cc	16ee
.	.	16ee	16gg	.	16ee	16gg
.	.	16dd	16ff	.	16dd	16ff
.	.	16cc	16ee	.	16cc	16ee
=5	=5	=5	=5	=5	=5	=5
4G	4g	4b	8dd	4G	4b	8dd
.	.	.	8g	.	.	8g
8r	8r	8r	4cc	8r	8r	4cc
8E	8c	8ee	.	8E	8ee	.
8F	4c	4a	8r	8F	4a	8r
8E	.	.	8a	8E	.	8a
8F	8r	8r	4dd	8F	8r	4dd
8D	8d	8ff	.	8D	8ff	.
=6	=6	=6	=6	=6	=6	=6
8G	4d	4b	8r	8G	4b	8r
8F	.	.	8b	8F	.	8b
8G	8r	8r	4ee	8G	8r	4ee
8E	8e	8gg	.	8E	8gg	.
8A	4e	4cc	8r	8A	4cc	8r
8G	.	.	8cc	8G	.	8cc
8A	8r	8r	[4ff	8A	8r	[4ff
8F	8f	8aa	.	8F	8aa	.
=7	=7	=7	=7	=7	=7	=7
8G	4d	8b	8ff]	8G	8b	8ff]
8B	.	8g	8gg	8B	8g	8gg
8c	8e	2cc	8ee	8c	2cc	8ee
8F	8a	.	8dd	8F	.	8dd
8G	4.g	.	4ee	8G	.	4ee
8F	.	.	.	8F	.	.
8G	.	4b	4dd	8G	4b	4dd
8GG	8g	.	.	8GG	.	.
=8	=8	=8	=8	=8	=8	=8
8C	4e	4cc	8cc	8C	4cc	8cc
8D	.	.	8g	8D	.	8g
8E	8r	8r	4cc	8E	8r	4cc
8C	8c	8ee	.	8C	8ee	.
8F	4c	4a	8r	8F	4a	8r
8E	.	.	8a	8E	.	8a
8F	8r	8r	4dd	8F	8r	4dd
8D	8d	8ff	.	8D	8ff	.
=9	=9	=9	=9	=9	=9	=9
8G	4d	4b	8r	8G	4b	8r
8F	.	.	8b	8F	.	8b
8G	8r	8r	4ee	8G	8r	4ee
8E	8e	8gg	.	8E	8gg	.
8A	4e	4cc	8r	8A	4cc	8r
8G	.	.	8cc	8G	.	8cc
8A	8r	8r	[4ff	8A	8r	[4ff
8F	8f	8aa	.	8F	8aa	.
=10	=10	=10	=10	=10	=10	=10
8G	4d	8b	8ff]	8G	8b	8ff]
8B	.	8g	8gg	8B	8g	8gg
8c	8e	2cc	8ee	8c	2cc	8ee
8F	8a	.	8dd	8F	.	8dd
8G	4.g	.	4ee	8G	.	4ee
8F	.	.	.	8F	.	.
8G	.	4b	4dd	8G	4b	4dd
8GG	8g	.	.	8GG	.	.
=11	=11	=11	=11	=11	=11	=11
8C	4e	8cc	4cc	8C	8cc	4cc
8c	.	8ee	.	8c	8ee	.
8B	8r	8dd	8r	8B	8dd	8r
8G	8g	8g	8gg	8G	8g	8gg
8r	4cc	8r	8ee	8r	8r	8ee
8c	.	8ee	8cc	8c	8ee	8cc
8B	8r	8dd	8r	8B	8dd	8r
8G	8g	8g	8gg	8G	8g	8gg
=12	=12	=12	=12	=12	=12	=12
8r	4c	8r	8ee	8r	8r	8ee
8C	.	8ee	8cc	8C	8ee	8cc
8BB	8r	8dd	8r	8BB	8dd	8r
8GG	8g	8b	8gg	8GG	8b	8gg
4C	4g	8cc	4ee	4C	8cc	4ee
.	.	8c	.	.	8c	.
4BB	4G	[4g	4dd	4BB	[4g	4dd
=13	=13	=13	=13	=13	=13	=13
2AA	2c	4g]	2cc	2AA	4g]	2cc
.	.	4f#	.	.	4f#	.
2GG	2d	2g	2b	2GG	2g	2b
=14	=14	=14	=14	=14	=14	=14
1r	1r	1r	1r	8r	4dd	16b
.	.	.	.	.	.	16dd
.	.	.	.	8g	.	16b
.	.	.	.	.	.	16dd
.	.	.	.	8f#	4dd	16a
.	.	.	.	.	.	16dd
.	.	.	.	8d	.	16a
.	.	.	.	.	.	16dd
.	.	.	.	8G	2dd	16b
.	.	.	.	.	.	16dd
.	.	.	.	8g	.	16b
.	.	.	.	.	.	16dd
.	.	.	.	8f#	.	16a
.	.	.	.	.	.	16dd
.	.	.	.	8d	.	16a
.	.	.	.	.	.	16dd
=15	=15	=15	=15	=15	=15	=15
8r	8r	4ee	16cc	8r	4ee	16cc
.	.	.	16ee	.	.	16ee
8A	8A	.	16cc	8A	.	16cc
.	.	.	16ee	.	.	16ee
8G#	4e	4ee	16b	8G#	4ee	16b
.	.	.	16ee	.	.	16ee
8E	.	.	16b	8E	.	16b
.	.	.	16ee	.	.	16ee
8AA	8r	2ee	16cc	8AA	2ee	16cc
.	.	.	16ee	.	.	16ee
8A	8A	.	16cc	8A	.	16cc
.	.	.	16ee	.	.	16ee
8G#	4e	.	4b	8G#	.	16b
.	.	.	.	.	.	16ee
8E	.	.	.	8E	.	16b
.	.	.	.	.	.	16ee
=16	=16	=16	=16	=16	=16	=16
1r	1r	1r	1r	8r	4gg	16ee
.	.	.	.	.	.	16gg
.	.	.	.	8c	.	16ee
.	.	.	.	.	.	16gg
.	.	.	.	8B	8r	16dd
.	.	.	.	.	.	16gg
.	.	.	.	8G	8gg	16dd
.	.	.	.	.	.	16gg
.	.	.	.	8r	8gg	16ee
.	.	.	.	.	.	16gg
.	.	.	.	8c	8cc	16ee
.	.	.	.	.	.	16gg
.	.	.	.	8B	4r	16dd
.	.	.	.	.	.	16gg
.	.	.	.	8G	.	16dd
.	.	.	.	.	.	16gg
=17	=17	=17	=17	=17	=17	=17
8r	8r	4aa	16ff	8r	4aa	16ff
.	.	.	16aa	.	.	16aa
8d	8d	.	16ff	8d	.	16ff
.	.	.	16aa	.	.	16aa
8c#	4a	8r	16ee	8c#	8r	16ee
.	.	.	16aa	.	.	16aa
8A	.	8aa	16ee	8A	8aa	16ee
.	.	.	16aa	.	.	16aa
8r	8r	8aa	16ff	8r	8aa	16ff
.	.	.	16aa	.	.	16aa
8d	8d	8dd	16ff	8d	8dd	16ff
.	.	.	16aa	.	.	16aa
8c#	4a	4r	4ee	8c#	4r	16ee
.	.	.	.	.	.	16aa
8A	.	.	.	8A	.	16ee
.	.	.	.	.	.	16aa
=18	=18	=18	=18	=18	=18	=18
1r	1r	1r	1r	8r	4bb	16gg
.	.	.	.	.	.	16bb
.	.	.	.	8e	.	16gg
.	.	.	.	.	.	16bb
.	.	.	.	8d#	8r	16ff#
.	.	.	.	.	.	16bb
.	.	.	.	8B	8bb	16ff#
.	.	.	.	.	.	16bb
.	.	.	.	8r	8bb	16gg
.	.	.	.	.	.	16bb
.	.	.	.	8e	8ee	16gg
.	.	.	.	.	.	16bb
.	.	.	.	8d#	8r	16ff#
.	.	.	.	.	.	16bb
.	.	.	.	8B	8bb	16ff#
.	.	.	.	.	.	16bb
=19	=19	=19	=19	=19	=19	=19
4e	4ee	4gg	4ccc	8e	4gg	4ccc
.	.	.	.	8E	.	.
4d	4b	4ff#	4bb	8d	4ff#	4bb
.	.	.	.	8D	.	.
4c	4cc	4ee	4aa	8c	4ee	4aa
.	.	.	.	8C	.	.
4B	4g	4dd	4gg	8B	4dd	4gg
.	.	.	.	8BB	.	.
=20	=20	=20	=20	=20	=20	=20
4A	4a	4cc	4ff	8A	4cc	4ff
.	.	.	.	8AA	.	.
4G	4e	4b	4ee	8G	4b	4ee
.	.	.	.	8GG	.	.
4F#	4f#	4dd#	4aa	4F#	4dd#	4aa
4E	8g	[4ee	8gg	4E	[4ee	8gg
.	8cc	.	8ff#	.	.	8ff#
=21	=21	=21	=21	=21	=21	=21
4B	2b	4ee]	4gg	4B	4ee]	4gg
4BB	.	4dd#	4ff#	4BB	4dd#	4ff#
4E	4b	[2ee	[2ee	8E	[2ee	[2ee
.	.	.	.	8c	.	.
4D	4r	.	.	8D	.	.
.	.	.	.	8B	.	.
=22	=22	=22	=22	=22	=22	=22
4C	4e	1ee]	1ee]	8C	1ee]	1ee]
.	.	.	.	8A	.	.
4BB	4d	.	.	8BB	.	.
.	.	.	.	8G	.	.
4AA	4c	.	.	8AA	.	.
.	.	.	.	8F#	.	.
4GG	4B	.	.	8GG	.	.
.	.	.	.	8E	.	.
=23	=23	=23	=23	=23	=23	=23
8FF#	4f#	4dd#	4aa	8FF#	4dd#	4aa
8BB	.	.	.	8BB	.	.
8C	8g	2ee	8gg	8C	2ee	8gg
8AA	8cc	.	8ff#	8AA	.	8ff#
2BB	4b	.	4gg	2BB	.	4gg
.	4B	4dd#	4ff#	.	4dd#	4ff#
=24	=24	=24	=24	=24	=24	=24
2EE	2B	2ee	2ee	2E	2ee	2ee
2r	2r	2r	2r	8C	4gg	16ee
.	.	.	.	.	.	16gg
.	.	.	.	8c	.	16ee
.	.	.	.	.	.	16gg
.	.	.	.	8B	8r	16dd
.	.	.	.	.	.	16gg
.	.	.	.	8G	8gg	16dd
.	.	.	.	.	.	16gg
=25	=25	=25	=25	=25	=25	=25
2r	2r	2r	2r	8r	8gg	16ee
.	.	.	.	.	.	16gg
.	.	.	.	8c	8cc	16ee
.	.	.	.	.	.	16gg
.	.	.	.	8B	4r	16dd
.	.	.	.	.	.	16gg
.	.	.	.	8G	.	16dd
.	.	.	.	.	.	16gg
8r	8r	4ee	16cc	8r	4ee	16cc
.	.	.	16ee	.	.	16ee
8A	8A	.	16cc	8A	.	16cc
.	.	.	16ee	.	.	16ee
8G#	4e	8r	16b	8G#	8r	16b
.	.	.	16ee	.	.	16ee
8E	.	8ee	16b	8E	8ee	16b
.	.	.	16ee	.	.	16ee
=26	=26	=26	=26	=26	=26	=26
8r	8r	8ee	16cc	8r	8ee	16cc
.	.	.	16ee	.	.	16ee
8A	8A	8a	16cc	8A	8a	16cc
.	.	.	16ee	.	.	16ee
8G#	4e	2.r	4b	8G#	4r	16b
.	.	.	.	.	.	16ee
8E	.	.	.	8E	.	16b
.	.	.	.	.	.	16ee
2r	2r	.	2r	8r	4cc	16a
.	.	.	.	.	.	16cc
.	.	.	.	8F	.	16a
.	.	.	.	.	.	16cc
.	.	.	.	8E	8r	16g
.	.	.	.	.	.	16cc
.	.	.	.	8C	8cc	16g
.	.	.	.	.	.	16cc
=27	=27	=27	=27	=27	=27	=27
2r	2r	2r	2r	8r	8cc	16a
.	.	.	.	.	.	16cc
.	.	.	.	8F	8f	16a
.	.	.	.	.	.	16cc
.	.	.	.	8E	4r	16g
.	.	.	.	.	.	16cc
.	.	.	.	8C	.	16g
.	.	.	.	.	.	16cc
4F	4f	4cc	16aa	4F	4cc	16aa
.	.	.	16bb	.	.	16bb
.	.	.	16aa	.	.	16aa
.	.	.	16bb	.	.	16bb
4E	4c	8r	16gg	4E	8r	16gg
.	.	.	16aa	.	.	16aa
.	.	8ee	16gg	.	8ee	16gg
.	.	.	16aa	.	.	16aa
=28	=28	=28	=28	=28	=28	=28
4D	4d	8a	16ff	4D	8a	16ff
.	.	.	16gg	.	.	16gg
.	.	8b	16ff	.	8b	16ff
.	.	.	16gg	.	.	16gg
4C	4g	16cc	16ee	4C	16cc	16ee
.	.	16ee	16gg	.	16ee	16gg
.	.	16dd	16ff	.	16dd	16ff
.	.	16cc	16ee	.	16cc	16ee
2G	2g	2b	4dd	8G	2b	4dd
.	.	.	.	8A	.	.
.	.	.	4g	8G	.	4g
.	.	.	.	8F	.	.
=29	=29	=29	=29	=29	=29	=29
2r	2r	2r	2r	8E	4ee	16cc
.	.	.	.	.	.	16ee
.	.	.	.	8c	.	16cc
.	.	.	.	.	.	16ee
.	.	.	.	8c	8r	16cc
.	.	.	.	.	.	16ee
.	.	.	.	8C	8ee	16cc
.	.	.	.	.	.	16ee
4F	4A	4a	4cc	8r	8ee	16a
.	.	.	.	.	.	16cc
.	.	.	.	8F	8a	16a
.	.	.	.	.	.	16cc
4FF	4c	4f	4a	8A	4r	16a
.	.	.	.	.	.	16cc
.	.	.	.	8F	.	16a
.	.	.	.	.	.	16cc
=30	=30	=30	=30	=30	=30	=30
2r	2r	2r	2r	8r	4ff	16dd
.	.	.	.	.	.	16ff
.	.	.	.	8d	.	16dd
.	.	.	.	.	.	16ff
.	.	.	.	8d	8r	16dd
.	.	.	.	.	.	16ff
.	.	.	.	8D	8ff	16dd
.	.	.	.	.	.	16ff
4G	4B	4b	4dd	8r	8ff	16b
.	.	.	.	.	.	16dd
.	.	.	.	8G	8b	16b
.	.	.	.	.	.	16dd
4GG	4d	4g	4b	8B	4r	16b
.	.	.	.	.	.	16dd
.	.	.	.	8G	.	16b
.	.	.	.	.	.	16dd
=31	=31	=31	=31	=31	=31	=31
2r	2r	2r	2r	8r	4gg	16ee
.	.	.	.	.	.	16gg
.	.	.	.	8e	.	16ee
.	.	.	.	.	.	16gg
.	.	.	.	8e	8r	16ee
.	.	.	.	.	.	16gg
.	.	.	.	8E	8gg	16ee
.	.	.	.	.	.	16gg
4A	4c	4cc	4ee	8r	8gg	16cc
.	.	.	.	.	.	16ee
.	.	.	.	8A	8cc	16cc
.	.	.	.	.	.	16ee
4AA	4e	4a	4cc	8c	4r	16cc
.	.	.	.	.	.	16ee
.	.	.	.	8A	.	16cc
.	.	.	.	.	.	16ee
=32	=32	=32	=32	=32	=32	=32
4F	4c	8aa	4ff	8r	8aa	16ff
.	.	.	.	.	.	16aa
.	.	8cc	.	8f	8cc	16ff
.	.	.	.	.	.	16aa
8r	8r	2ff	8r	8f	2ff	16ff
.	.	.	.	.	.	16aa
8F	8f	.	8aa	8d	.	16ff
.	.	.	.	.	.	16aa
8G	4d	.	8b	8g	.	8b
8B	.	.	8g	8B	.	8g
8c	8e	8ee	[4cc	8c	8ee	[4cc
8F	8a	8dd	.	8F	8dd	.
=33	=33	=33	=33	=33	=33	=33
4G	4.g	4ee	4cc]	4G	4ee	4cc]
4GG	.	4dd	4b	4GG	4dd	4b
.	8g	.	.	.	.	.
2C	2e	2cc	2cc	8C	2cc	2cc
.	.	.	.	8G	.	.
.	.	.	.	8G	.	.
.	.	.	.	8F	.	.
=34	=34	=34	=34	=34	=34	=34
2r	2r	2r	2r	8E	4ee	16cc
.	.	.	.	.	.	16ee
.	.	.	.	8c	.	16cc
.	.	.	.	.	.	16ee
.	.	.	.	8c	8r	16cc
.	.	.	.	.	.	16ee
.	.	.	.	8C	8ee	16cc
.	.	.	.	.	.	16ee
4F	4A	4a	4cc	8r	8ee	16a
.	.	.	.	.	.	16cc
.	.	.	.	8F	8a	16a
.	.	.	.	.	.	16cc
4FF	4c	4f	4a	8A	4r	16a
.	.	.	.	.	.	16cc
.	.	.	.	8F	.	16a
.	.	.	.	.	.	16cc
=35	=35	=35	=35	=35	=35	=35
2r	2r	2r	2r	8r	4ff	16dd
.	.	.	.	.	.	16ff
.	.	.	.	8d	.	16dd
.	.	.	.	.	.	16ff
.	.	.	.	8d	8r	16dd
.	.	.	.	.	.	16ff
.	.	.	.	8D	8ff	16dd
.	.	.	.	.	.	16ff
4G	4B	4b	4dd	8r	8ff	16b
.	.	.	.	.	.	16dd
.	.	.	.	8G	8b	16b
.	.	.	.	.	.	16dd
4GG	4d	4g	4b	8B	4r	16b
.	.	.	.	.	.	16dd
.	.	.	.	8G	.	16b
.	.	.	.	.	.	16dd
=36	=36	=36	=36	=36	=36	=36
2r	2r	2r	2r	8r	4gg	16ee
.	.	.	.	.	.	16gg
.	.	.	.	8e	.	16ee
.	.	.	.	.	.	16gg
.	.	.	.	8e	8r	16ee
.	.	.	.	.	.	16gg
.	.	.	.	8E	8gg	16ee
.	.	.	.	.	.	16gg
4A	4c	4cc	4ee	8r	8gg	16cc
.	.	.	.	.	.	16ee
.	.	.	.	8A	8cc	16cc
.	.	.	.	.	.	16ee
4AA	4e	4a	4cc	8c	4r	16cc
.	.	.	.	.	.	16ee
.	.	.	.	8A	.	16cc
.	.	.	.	.	.	16ee
=37	=37	=37	=37	=37	=37	=37
4F	4c	8aa	4ff	8r	8aa	16ff
.	.	.	.	.	.	16aa
.	.	8cc	.	8f	8cc	16ff
.	.	.	.	.	.	16aa
8r	8r	2ff	8r	8f	2ff	16ff
.	.	.	.	.	.	16aa
8F	8f	.	8aa	8d	.	16ff
.	.	.	.	.	.	16aa
8G	4d	.	8b	8g	.	8b
8B	.	.	8g	8B	.	8g
8c	8e	8ee	[4cc	8c	8ee	[4cc
8F	8a	8dd	.	8F	8dd	.
=38	=38	=38	=38	=38	=38	=38
4G	4.g	4ee	4cc]	4G	4ee	4cc]
4GG	.	4dd	4b	4GG	4dd	4b
.	8g	.	.	.	.	.
8C	8e	2cc	2cc	8C	2cc	2cc
8D	8f	.	.	8D	.	.
8E	8g	.	.	8E	.	.
8C	8e	.	.	8C	.	.
=39	=39	=39	=39	=39	=39	=39
4F	4f	8ccc	4aa	4F	8ccc	16aa
.	.	.	.	.	.	16bb
.	.	8cc	.	.	8cc	16aa
.	.	.	.	.	.	16gg
8r	8r	2ff	8r	8r	2ff	16ff
.	.	.	.	.	.	16ee
8F	8f	.	8aa	8F	.	16dd
.	.	.	.	.	.	16cc
8G	4d	.	8b	8G	.	8b
8B	.	.	8g	8B	.	8g
8c	8e	8ee	[4cc	8c	8ee	[4cc
8F	8a	8dd	.	8F	8dd	.
=40	=40	=40	=40	=40	=40	=40
4G	4.g	4ee	4cc]	4G	4ee	4cc]
4GG	.	4dd	4b	4GG	4dd	4b
.	8g	.	.	.	.	.
2C	2e	2cc	2cc	2C	2cc	2cc
==	==	==	==	==	==	==
*-	*-	*-	*-	*-	*-	*-
!!!RWG: This file only contains pitch and duration data.
!!!RWG: Transposing instruments are not transposed.
!!!RWG: Durations of rests and tied notes may be interpreted.
!!!RWG: Key is interpreted using the Humdrum key tool.
!!!SCA: 
!!!YOR: Chrysander Edition
!!!AGN: concerto grosso
!!!AFT: stage1
!!!ENC: F. Bennion
!!!END: 1997/04/15
!!!AST: baroque
!!!YEC: Copyright 1994, Center for Computer Assisted Research in the Humanities
!!!YEM: Rights to all derivative electronic formats reserved.
!!!YEM: Refer to licensing agreement for further details.
!!!YEN: United States of America
!!!EED: W.B. Hewlett
!!!KEY: 2325367583
!!!EMD: Converted from MuseData to Humdrum Aug 2, 1999, by Bret Aarden using muse2kern.
!!!VTS: 1170348224
